icons/arrow-box-out-top-right.svg

<svg xmlns="http://www.w3.org/2000/svg" width="24" height="24" viewBox="0 0 24 24">
  <path d="M11,6 L11.1166211,6.00672773 C11.6139598,6.06449284 12,6.48716416 12,7 C12,7.55228475 11.5522847,8 11,8 L11,8 L6,8 L5.88337887,8.00672773 C5.38604019,8.06449284 5,8.48716416 5,9 L5,9 L5,19 L5.00672773,19.1166211 C5.06449284,19.6139598 5.48716416,20 6,20 L6,20 L16,20 L16.1166211,19.9932723 C16.6139598,19.9355072 17,19.5128358 17,19 L17,19 L17,11.6666667 L17.0067277,11.5500455 C17.0644928,11.0527069 17.4871642,10.6666667 18,10.6666667 C18.5522847,10.6666667 19,11.1143819 19,11.6666667 L19,11.6666667 L19,19 L18.9949073,19.1762728 C18.9036609,20.75108 17.5976809,22 16,22 L16,22 L6,22 L5.82372721,21.9949073 C4.24891996,21.9036609 3,20.5976809 3,19 L3,19 L3,9 L3.00509269,8.82372721 C3.09633912,7.24891996 4.40231912,6 6,6 L6,6 L11,6 Z M21,2 L21.0193409,2.0001833 L21.0193409,2.0001833 L21.0590314,2.0017331 L21.0590314,2.0017331 L21.084,2.004 L21.1166211,2.00672773 C21.1291477,2.00818267 21.1416037,2.00986911 21.1539846,2.01178265 C21.1611342,2.01296161 21.1687893,2.01423509 21.1764315,2.01559786 L21.1988177,2.01976438 C21.2231682,2.02467654 21.2471983,2.03047332 21.2708729,2.03711974 C21.2847689,2.04109725 21.2984943,2.04526694 21.3121425,2.04973809 C21.3317977,2.05612249 21.3515792,2.06331574 21.3710585,2.07110396 C21.3887956,2.07819642 21.4060985,2.08567905 21.4232215,2.09367336 C21.4438914,2.10337664 21.4642939,2.11379392 21.484277,2.12487577 C21.4963944,2.13149883 21.5086131,2.13860692 21.5207088,2.14599545 C21.546275,2.1617187 21.5711307,2.17849009 21.5951593,2.19631351 C21.6343256,2.22531295 21.6717127,2.25749917 21.7071068,2.29289322 L21.6148064,2.21126487 L21.6148064,2.21126487 L21.625449,2.21968877 C21.6854251,2.26782388 21.7397335,2.32273092 21.787214,2.38324992 C21.7927155,2.39015759 21.7982466,2.39739696 21.8036654,2.40469339 C21.8215099,2.42886931 21.8382813,2.45372505 21.8539326,2.47933981 C21.8613931,2.49138689 21.8685012,2.50360556 21.8753288,2.5159379 C21.8862061,2.53570605 21.8966234,2.5561086 21.9063462,2.57690085 C21.914321,2.5939015 21.9218036,2.61120435 21.9287745,2.62866398 C21.9366843,2.6484208 21.9438775,2.66820232 21.9504533,2.68826359 C21.9552713,2.70314866 21.9599023,2.71853672 21.9641549,2.73400703 C21.9701664,2.75556352 21.9753602,2.77725392 21.9798348,2.7992059 C21.9832978,2.81662474 21.9863719,2.83405099 21.9889822,2.85153313 C21.9962388,2.89963791 22,2.94937972 22,3 L21.9962979,2.9137692 C21.9978436,2.93173451 21.9989053,2.94973363 21.9994829,2.96774538 L22,3 L22,9 L21.9932723,9.11662113 C21.9355072,9.61395981 21.5128358,10 21,10 C20.4477153,10 20,9.55228475 20,9 L20,9 L20,5.414 L12.7071068,12.7071068 L12.6128994,12.7902954 C12.2206082,13.0953203 11.6533772,13.0675907 11.2928932,12.7071068 C10.9023689,12.3165825 10.9023689,11.6834175 11.2928932,11.2928932 L11.2928932,11.2928932 L18.584,4 L15,4 L14.8833789,3.99327227 C14.3860402,3.93550716 14,3.51283584 14,3 C14,2.44771525 14.4477153,2 15,2 L15,2 L21,2 Z"/>
</svg>

<svg xmlns="http://www.w3.org/2000/svg" viewBox="0 0 24 24">
  <path d="M11 6h.12A1 1 0 0 1 11 8H5.88A1 1 0 0 0 5 9v10.12A1 1 0 0 0 6 20h10.12a1 1 0 0 0 .88-1v-7.45a1 1 0 0 1 2 .12v7.51A3 3 0 0 1 16 22H5.82A3 3 0 0 1 3 19V8.82A3 3 0 0 1 6 6h5zm10-4h.12a1 1 0 0 1 .06.02h.02a1 1 0 0 1 .5.27l-.09-.08.02.01A1 1 0 0 1 22 3v-.09a1 1 0 0 1 0 .06v6.15A1 1 0 0 1 20 9V5.41l-7.3 7.3-.09.08a1 1 0 0 1-1.32-1.5L18.6 4h-3.71A1 1 0 0 1 15 2h6z"/>
</svg>
